actions/24/pane-show-symbolic.svg

<?xml version="1.0" encoding="UTF-8" standalone="no"?>
<svg
   height="24"
   width="24"
   version="1.1"
   id="svg644"
   sodipodi:docname="pane-show-symbolic.svg"
   inkscape:version="1.2.2 (b0a8486541, 2022-12-01)"
   xmlns:inkscape="http://www.inkscape.org/namespaces/inkscape"
   xmlns:sodipodi="http://sodipodi.sourceforge.net/DTD/sodipodi-0.dtd"
   xmlns="http://www.w3.org/2000/svg"
   xmlns:svg="http://www.w3.org/2000/svg">
  <defs
     id="defs648" />
  <sodipodi:namedview
     id="namedview646"
     pagecolor="#ffffff"
     bordercolor="#000000"
     borderopacity="0.25"
     inkscape:showpageshadow="2"
     inkscape:pageopacity="0.0"
     inkscape:pagecheckerboard="0"
     inkscape:deskcolor="#d1d1d1"
     showgrid="false"
     inkscape:zoom="33.5"
     inkscape:cx="12"
     inkscape:cy="12.014925"
     inkscape:window-width="1920"
     inkscape:window-height="1030"
     inkscape:window-x="0"
     inkscape:window-y="0"
     inkscape:window-maximized="1"
     inkscape:current-layer="svg644" />
  <path
     id="rect3396"
     style="fill:#555761;fill-opacity:1;stroke:none;stroke-width:0.999995;stroke-linejoin:round;stroke-opacity:0.5;stop-color:#000000"
     d="m 15.996094,6.7499999 c 0.141664,-7.402e-4 0.28391,0.028978 0.417968,0.089844 C 16.770868,7.0021789 16.999939,7.358001 17,7.7499999 V 10 h 5 c 0.553998,0 1,0.446002 1,1 v 1 c 0,0.553998 -0.446002,1 -1,1 h -5 v 2.249024 c -9.5e-4,0.858428 -1.011819,1.316832 -1.658203,0.751952 l -4.500796,-3.749023 c -0.454309,-0.398371 -0.454309,-1.105535 0,-1.503906 l 4.500796,-3.7500002 c 0.184615,-0.1616459 0.418189,-0.2468132 0.654297,-0.2480469 z"
     sodipodi:nodetypes="scccssssccccccs" />
  <path
     id="path2"
     style="fill:#555761;fill-opacity:1;marker:none"
     d="M 16.5,2 C 16.777,2 17,2.2230003 17,2.5 v 1 C 17,3.7769997 16.777,4 16.5,4 H 8 C 7.446001,4 7,4.4460006 7,5 v 13 c 0,0.553999 0.446001,1 1,1 h 8.5 c 0.277,0 0.5,0.223 0.5,0.5 v 1 C 17,20.777 16.777,21 16.5,21 H 7 C 5.892001,21 5,20.107999 5,19 V 4 C 5,2.8920011 5.892001,2 7,2 Z"
     sodipodi:nodetypes="cssccssccssccsscc" />
</svg>

<svg
        xmlns='http://www.w3.org/2000/svg'
        xmlns:svg='http://www.w3.org/2000/svg'
        id='svg644'
        width='24'
        height='24'>
  <path
          id='rect3396'
          fill='url(#gpa:foreground) #555761'
          fill-opacity='1'
          fill-rule='nonzero'
          stroke='none'
          stroke-opacity='0.5'
          stroke-width='0.999995'
          stroke-linejoin='round'
          d='M 15.9961 6.75 C 16.1378 6.74926, 16.28 6.77898, 16.4141 6.83984 C 16.7709 7.00218, 16.9999 7.358, 17 7.75 L 17 10 L 22 10 C 22.554 10, 23 10.446, 23 11 L 23 12 C 23 12.554, 22.554 13, 22 13 L 17 13 L 17 15.249 C 16.9991 16.1075, 15.9882 16.5659, 15.3418 16.001 L 10.841 12.252 C 10.3867 11.8536, 10.3867 11.1464, 10.841 10.748 L 15.3418 6.99805 C 15.5264 6.8364, 15.76 6.75123, 15.9961 6.75 Z'
          class="foreground">
  </path>
  <path
          id='path2'
          fill='url(#gpa:foreground) #555761'
          fill-opacity='1'
          fill-rule='nonzero'
          marker-start='none'
          marker-mid='none'
          marker-end='none'
          d='M 16.5 2 C 16.777 2, 17 2.223, 17 2.5 L 17 3.5 C 17 3.777, 16.777 4, 16.5 4 L 8 4 C 7.446 4, 7 4.446, 7 5 L 7 18 C 7 18.554, 7.446 19, 8 19 L 16.5 19 C 16.777 19, 17 19.223, 17 19.5 L 17 20.5 C 17 20.777, 16.777 21, 16.5 21 L 7 21 C 5.892 21, 5 20.108, 5 19 L 5 4 C 5 2.892, 5.892 2, 7 2 Z'
          class="foreground">
  </path>
</svg>
